X: 67
T:Old Woman Tossed Up
M:4/4
L:1/8
Q:1/8=160
K:G
GA B2 c2 d2|ed c2 B2 G2|cB c2 A2 dc|B2 G2 G4|
GA B2 c2 d2|ed c2 B2 G2|cB c2 A2 dc|B2 G2 G4||
Bc d2 Bc d2|Bc d2  ed c2|AB  c2 AB c2|dc B2 A4|
GA B2 c2 d2|ed c2 B2 G2|cB c2 A2 dc|B2 G2 G4||
